X:115
T:Reels simple chords 297
M:3/4
L:1/8
K:A
E2 [A2A,2C2E2] Ac | B2 Bc [A2A,2C2E2] | Ac B2 Bc | [A2A,2C2E2] ag fe | dc [BE,G,B,D]c de |
c2 A2 [A2A,2C2E2] | Ac B2 Bc | [A2A,2C2E2] Ac B2 | Bc [A2A,2C2E2] ag |
fe dc [BE,G,B,D]c | de c2 A2 | [e2A,2C2E2] ef ed | cd [e2A,2C2E2] a2 |
e2 cd [e2A,2C2E2] | ef ed cd | [e2A,2C2E2] ag fe | dc [d2D,2F,2A,2] de |
c2 cd [B2B,2D2F2] | Bc ed cB | [A2A,2C2E2] ag fe | dc [BE,G,B,D]c de |
c2 A2 [A2A,2C2E2] | Ac B2 Bc | [A2A,2C2E2] Ac B2 | Bc [A2A,2C2E2] ag |
fe dc [BE,G,B,D]c | de c2 A2 | [A2A,2C2E2] Ac B2 | Bc [A2A,2C2E2] Ac |
B2 Bc [A2A,2C2E2] | ag fe dc | [BE,G,B,D]c de c2 | A2 [e2A,2C2E2] ef |
ed cd [e2A,2C2E2] | a2 e2 cd | [e2A,2C2E2] ef ed | cd [e2A,2C2E2] ag |
fe dc [d2D,2F,2A,2] | de c2 cd | [B2B,2D2F2] Bc ed | cB [A2A,2C2E2] ag |
fe dc [BE,G,B,D]c | de c2 A2 | [AA,CE]E Ac BE | GB [AA,CE]E Ac |
BE GB [A2A,2C2E2] | ag fe dc | [B2E,2G,2B,2D2] gf ed | cB [AA,CE]E Ac |
BE GB [AA,CE]E | Ac BE GB | [A2A,2C2E2] ag fe | dc [BE,G,B,D]A GB |
AB cd [eA,CE]^d | ef ec ac | [e2A,2C2E2] af ec | Ac [eA,CE]^d ef |
ec ac [e2A,2C2E2] | ag fe dc | [d2D,2F,2A,2] bd c2 | ac [B2B,2D2F2] Bc |
d2 cB [A2A,2C2E2] | ag fe dc | [BE,G,B,D]c de c2 | A2 |


